X:1
T:Title
%%score { ( 1 4 5 ) | ( 2 3 ) }
L:1/8
Q:1/4=100
M:4/4
K:Eb
V:1 treble nm="Grand Piano"
V:4 treble 
V:5 treble 
V:2 bass 
V:3 bass 
V:1
 G3 G A2 G2 | [DG]2 [DF]2 E4 | [EB]3 [EB] [DB]2 [FA]2 | [FA]2 G4 z2 | G3 G A2 B2 | c2 [Ad]2 [Ge]4 | %6
w: James~McGranahan * * *||||||
 [Ff]3 [Ge] d2 c2 |[M:3/4] [Ec]2 [DB]4 |[M:12/8] z6 [Ad]2 d d2 B | %9
w: |||
[M:9/8] Bc[Ad] e2- [ce-] [Be-]2 [Ae-] |[M:3/8] [Ge]3 | E,F,G, | %12
w: |||
[M:6/4][K:treble] z2 z c2 c c2 [Ae]edc |[M:9/8] B8- B |[M:3/8] B2 A |[M:6/4] .G12 |[M:9/8] c8- c | %17
w: |||||
[M:3/8] dfe |[M:6/4] .[Ge]6 .[DB]6 |[M:9/8] E8- E |] %20
w: |||
V:2
 [E,B,E]3 [E,B,E] [E,CE]2 [E,B,E]2 | [B,,B,]2 [=B,,A,]2 [C,G,]4 | %2
 [B,,G,]3 [B,,G,] [B,,F,]2 [B,,B,]2 | [E,B,]2 [E,B,E]4 z2 | [E,B,E]3 [E,B,E] [F,B,D]2 [G,B,E]2 | %5
 [A,E]2 [F,B,]2 [E,B,]4 | [D,B,]3 [E,B,] [F,B,F]2 [F,E]2 |[M:3/4] [B,,F,]2 [B,,F,]4 | %8
[M:12/8] B,,D,F, B,3 z2[K:treble] A [B,A]2 [A,DA] | %9
[M:9/8] A-[G,EA][K:bass][F,F] E,2- [E,-E] [E,-D]2 [E,-C] |[M:3/8] [E,B,]3 | z3 | %12
[M:6/4] z2 z[K:treble] [EA]2 [EA] [EA]2[K:bass] [F,E]F,G,[K:treble][=A,EF] | %13
[M:9/8] [DF]2 E F2 E D3 |[M:3/8] z3 |[M:6/4] z6[K:bass] .B,3 .[G,B,]3 | %16
[M:9/8] [A,,A,]2 [A,,A,] [C,A,]2 [E,A,] A,3 |[M:3/8][K:treble] DFE | %18
[M:6/4] B,2 .B,2[K:bass] E[B,,A,] [B,,A,]2 .B,,2 B,[B,,A,B,] |[M:9/8] [E,G,B,]8- [E,G,B,] |] %20
V:3
 x8 | x8 | x8 | x8 | x8 | x8 | x8 |[M:3/4] x6 |[M:12/8] z6 B,3[K:treble] z3 | %9
[M:9/8] .[A,D]3[K:bass] .B,3 z3 |[M:3/8] x3 | x3 |[M:6/4] z6[K:treble] z2[K:bass] z .C3[K:treble] | %13
[M:9/8] B,8- B, |[M:3/8] x3 | %15
[M:6/4] z2 z[K:bass] [E,B,]2 [E,B,] E,-[E,C][E,A,B,]E,-[E,B,E][E,G,E] |[M:9/8] x9 | %17
[M:3/8][K:treble] x3 |[M:6/4] z2 z[K:bass] .B,,3 z2 z .B,,3 |[M:9/8] x9 |] %20
V:4
 x8 | x8 | x8 | x8 | x8 | x8 | x8 |[M:3/4] x6 |[M:12/8] x12 |[M:9/8] z3 .G3 z3 |[M:3/8] x3 | x3 | %12
[M:6/4][K:treble] A,6- A,2 z .=A3 |[M:9/8] z2 G A2 G F3 |[M:3/8] x3 |[M:6/4] z2 z E2 E z AFEGB | %16
[M:9/8] E2 E E2 E E3 |[M:3/8] x3 |[M:6/4] E2 .E2 G[Ec] z2 .A,2 DF |[M:9/8] x9 |] %20
V:5
 x8 | x8 | x8 | x8 | x8 | x8 | x8 |[M:3/4] x6 |[M:12/8] x12 |[M:9/8] x9 |[M:3/8] x3 | x3 | %12
[M:6/4][K:treble] x12 |[M:9/8] x9 |[M:3/8] x3 |[M:6/4] z6 .E6 |[M:9/8] x9 |[M:3/8] x3 | %18
[M:6/4] z2 z .B,3 z2 z .A,3 |[M:9/8] x9 |] %20

